neru-light-classic/32x32/apps/pcbnew.svg

<?xml version="1.0" encoding="UTF-8" standalone="no"?>
<svg
   xmlns:dc="http://purl.org/dc/elements/1.1/"
   xmlns:cc="http://creativecommons.org/ns#"
   xmlns:rdf="http://www.w3.org/1999/02/22-rdf-syntax-ns#"
   xmlns:svg="http://www.w3.org/2000/svg"
   xmlns="http://www.w3.org/2000/svg"
   xmlns:sodipodi="http://sodipodi.sourceforge.net/DTD/sodipodi-0.dtd"
   xmlns:inkscape="http://www.inkscape.org/namespaces/inkscape"
   height="32"
   width="32"
   version="1"
   id="svg14"
   sodipodi:docname="pcbnew.svg"
   inkscape:version="0.92.2 2405546, 2018-03-11">
  <metadata
     id="metadata20">
    <rdf:RDF>
      <cc:Work
         rdf:about="">
        <dc:format>image/svg+xml</dc:format>
        <dc:type
           rdf:resource="http://purl.org/dc/dcmitype/StillImage" />
      </cc:Work>
    </rdf:RDF>
  </metadata>
  <defs
     id="defs18" />
  <sodipodi:namedview
     pagecolor="#ffffff"
     bordercolor="#666666"
     borderopacity="1"
     objecttolerance="10"
     gridtolerance="10"
     guidetolerance="10"
     inkscape:pageopacity="0"
     inkscape:pageshadow="2"
     inkscape:window-width="1680"
     inkscape:window-height="972"
     id="namedview16"
     showgrid="false"
     inkscape:zoom="11.313709"
     inkscape:cx="-9.4368375"
     inkscape:cy="12.507794"
     inkscape:window-x="0"
     inkscape:window-y="0"
     inkscape:window-maximized="1"
     inkscape:current-layer="svg14" />
  <rect
     style="opacity:1;fill:#ececec;fill-opacity:1;fill-rule:evenodd;stroke:none;stroke-width:1.03534329;stroke-linecap:round;stroke-linejoin:bevel;stroke-miterlimit:4;stroke-dasharray:none;stroke-dashoffset:0;stroke-opacity:1"
     id="rect4497-3-5"
     width="28.203388"
     height="28.203388"
     x="1.8983059"
     y="1.8983059"
     ry="5.575182" />
  <path
     style="opacity:1;fill:#666666;fill-opacity:1;fill-rule:evenodd;stroke:none;stroke-width:1.03534329;stroke-linecap:round;stroke-linejoin:bevel;stroke-miterlimit:4;stroke-dasharray:none;stroke-dashoffset:0;stroke-opacity:1"
     d="M 20.527344 3.7519531 C 19.910343 3.7519531 19.34868 4.0053244 18.941406 4.4121094 C 18.534133 4.8188944 18.28125 5.3790932 18.28125 5.9960938 C 18.28125 6.5205849 18.463961 7.0027926 18.769531 7.3847656 C 19.075101 7.7667386 19.503529 8.0484769 19.992188 8.1699219 L 19.992188 10.970703 L 19.996094 11.003906 C 20.050014 11.415058 20.212438 11.774079 20.480469 12.017578 C 20.7485 12.261078 21.085221 12.366003 21.404297 12.400391 L 21.431641 12.404297 L 30.052734 12.404297 L 30.052734 11.361328 L 21.503906 11.361328 C 21.337534 11.341128 21.23949 11.298648 21.181641 11.246094 C 21.123251 11.193044 21.065071 11.100916 21.033203 10.876953 L 21.033203 8.1777344 C 21.529098 8.0616909 21.962841 7.7804329 22.273438 7.3964844 C 22.584034 7.0125359 22.771484 6.525897 22.771484 5.9960938 C 22.771484 5.3790932 22.518113 4.8188944 22.111328 4.4121094 C 21.704543 4.0053244 21.144344 3.7519531 20.527344 3.7519531 z M 20.527344 4.734375 C 20.878799 4.734375 21.194309 4.8739966 21.421875 5.1015625 C 21.649441 5.3291284 21.789063 5.6446387 21.789062 5.9960938 C 21.789062 6.3475487 21.649441 6.6625708 21.421875 6.890625 C 21.194309 7.1186792 20.878799 7.2597656 20.527344 7.2597656 C 20.175889 7.2597656 19.860867 7.1186792 19.632812 6.890625 C 19.404758 6.6625708 19.263672 6.3475487 19.263672 5.9960938 C 19.263672 5.6446387 19.404758 5.3291284 19.632812 5.1015625 C 19.860867 4.8739966 20.175889 4.734375 20.527344 4.734375 z "
     id="path1016" />
  <path
     style="opacity:1;fill:#666666;fill-opacity:1;fill-rule:evenodd;stroke:none;stroke-width:1.03534329;stroke-linecap:round;stroke-linejoin:bevel;stroke-miterlimit:4;stroke-dasharray:none;stroke-dashoffset:0;stroke-opacity:1"
     d="M 1.8984375 11.009766 L 6.0175781 11.009766 L 6.0234375 11.009766 C 6.2306774 11.006366 6.2838215 11.046354 6.3203125 11.083984 C 6.3568035 11.121614 6.4118545 11.218089 6.4238281 11.445312 L 6.4238281 18.482422 C 5.9528549 18.615751 5.5429012 18.897138 5.25 19.273438 C 4.9570988 19.649737 4.78125 20.120952 4.78125 20.632812 C 4.78125 21.249814 5.034133 21.811477 5.4414062 22.21875 C 5.8486795 22.626023 6.4103432 22.878906 7.0273438 22.878906 C 7.6443442 22.878906 8.2045431 22.626023 8.6113281 22.21875 C 9.0181132 21.811477 9.2714844 21.249814 9.2714844 20.632812 C 9.2714844 20.09059 9.0772402 19.592234 8.7539062 19.203125 C 8.4305723 18.814016 7.9781486 18.534153 7.4648438 18.431641 L 7.4648438 11.404297 L 7.4648438 11.390625 C 7.4446756 11.007892 7.3372477 10.634672 7.0683594 10.357422 C 6.7994711 10.080171 6.4046184 9.9603463 6.0058594 9.9667969 L 1.8984375 9.9667969 L 1.8984375 11.009766 z M 7.0273438 19.371094 C 7.3787987 19.371094 7.6943091 19.510715 7.921875 19.738281 C 8.1494409 19.965847 8.2890625 20.281357 8.2890625 20.632812 C 8.2890625 20.984268 8.1494409 21.299778 7.921875 21.527344 C 7.6943091 21.75491 7.3787987 21.894531 7.0273438 21.894531 C 6.6758887 21.894531 6.3603784 21.75491 6.1328125 21.527344 C 5.9052466 21.299778 5.765625 20.984268 5.765625 20.632812 C 5.765625 20.281358 5.9052466 19.965847 6.1328125 19.738281 C 6.3603784 19.510715 6.6758887 19.371094 7.0273438 19.371094 z "
     id="path1014" />
  <path
     style="opacity:1;fill:#666666;fill-opacity:1;fill-rule:evenodd;stroke:none;stroke-width:1.03534329;stroke-linecap:round;stroke-linejoin:bevel;stroke-miterlimit:4;stroke-dasharray:none;stroke-dashoffset:0;stroke-opacity:1"
     d="M 14.283203 30.101562 L 14.283203 25.771484 L 14.283203 25.763672 C 14.267143 25.218825 14.062681 24.770968 13.720703 24.568359 C 13.378725 24.36575 13.08918 24.394351 12.960938 24.371094 L 12.914062 24.363281 L 1.8984375 24.363281 L 1.8984375 24.527344 C 1.8984375 24.838796 2.0255836 25.107022 2.0742188 25.404297 L 12.820312 25.404297 C 13.035089 25.442247 13.190096 25.465224 13.189453 25.464844 C 13.188729 25.464415 13.231426 25.428104 13.242188 25.792969 L 13.242188 30.101562 L 14.283203 30.101562 z "
     id="path1010" />
  <path
     style="opacity:1;fill:#666666;fill-opacity:1;fill-rule:evenodd;stroke:none;stroke-width:1.03534329;stroke-linecap:round;stroke-linejoin:bevel;stroke-miterlimit:4;stroke-dasharray:none;stroke-dashoffset:0;stroke-opacity:1"
     d="M 18.519531 30.101562 L 18.519531 21.335938 L 18.517578 21.376953 C 18.542808 21.058806 18.522278 20.78909 18.423828 20.544922 C 18.325368 20.300754 18.130046 20.103832 17.935547 20.001953 C 17.546548 19.798196 17.225741 19.830187 17.091797 19.796875 L 17.029297 19.78125 L 12.970703 19.78125 L 12.96875 19.78125 C 12.768248 19.781866 12.681538 19.739463 12.660156 19.720703 C 12.638776 19.701953 12.591853 19.664473 12.595703 19.416016 L 12.595703 19.412109 L 12.595703 13.195312 C 13.082732 13.072923 13.509941 12.791207 13.814453 12.410156 C 14.118965 12.029105 14.300781 11.548718 14.300781 11.025391 C 14.300781 10.40839 14.047898 9.8467264 13.640625 9.4394531 C 13.233352 9.0321798 12.671688 8.7792969 12.054688 8.7792969 C 11.437686 8.7792969 10.877488 9.0321798 10.470703 9.4394531 C 10.063918 9.8467264 9.8105469 10.40839 9.8105469 11.025391 C 9.8105469 11.556288 9.996916 12.04519 10.308594 12.429688 C 10.620272 12.814185 11.057257 13.094279 11.554688 13.208984 L 11.554688 19.400391 C 11.547986 19.836738 11.678336 20.245755 11.972656 20.503906 C 12.266455 20.7616 12.633146 20.825031 12.970703 20.824219 L 16.921875 20.824219 C 17.193383 20.882869 17.425734 20.910508 17.451172 20.923828 C 17.465862 20.931528 17.444331 20.902184 17.457031 20.933594 C 17.469681 20.964974 17.495756 21.077623 17.478516 21.294922 L 17.478516 21.314453 L 17.478516 30.101562 L 18.519531 30.101562 z M 12.054688 9.7617188 C 12.406142 9.7617188 12.721653 9.9028051 12.949219 10.130859 C 13.176785 10.358914 13.316406 10.673936 13.316406 11.025391 C 13.316406 11.376846 13.176785 11.692356 12.949219 11.919922 C 12.721653 12.147488 12.406142 12.287109 12.054688 12.287109 C 11.703231 12.287109 11.387722 12.147488 11.160156 11.919922 C 10.93259 11.692356 10.792969 11.376846 10.792969 11.025391 C 10.792969 10.673936 10.93259 10.358914 11.160156 10.130859 C 11.387722 9.9028051 11.703231 9.7617187 12.054688 9.7617188 z "
     id="path1008" />
  <path
     style="opacity:1;fill:#666666;fill-opacity:1;fill-rule:evenodd;stroke:none;stroke-width:1.03534329;stroke-linecap:round;stroke-linejoin:bevel;stroke-miterlimit:4;stroke-dasharray:none;stroke-dashoffset:0;stroke-opacity:1"
     d="M 26.818359 29.585938 L 26.818359 16.666016 C 26.821759 16.525619 26.847777 16.49597 26.873047 16.470703 C 26.897777 16.445973 26.970217 16.401599 27.142578 16.380859 L 29.914062 16.380859 L 29.914062 15.339844 L 27.060547 15.339844 L 27.033203 15.341797 C 26.697485 15.379097 26.375478 15.493664 26.136719 15.732422 C 25.89796 15.971179 25.785396 16.310368 25.777344 16.640625 L 25.777344 16.646484 L 25.777344 29.849609 C 26.130383 29.766645 26.495104 29.732164 26.818359 29.585938 z "
     id="path1006" />
  <path
     style="opacity:1;fill:#666666;fill-opacity:1;fill-rule:evenodd;stroke:none;stroke-width:1.03534329;stroke-linecap:round;stroke-linejoin:bevel;stroke-miterlimit:4;stroke-dasharray:none;stroke-dashoffset:0;stroke-opacity:1"
     d="M 23.882812 1.8984375 L 23.882812 6.6992188 L 23.888672 6.734375 C 23.922832 6.9902724 23.962992 7.3420984 24.210938 7.671875 C 24.458883 8.0016516 24.885959 8.2208335 25.451172 8.3007812 L 25.486328 8.3046875 L 30.101562 8.3046875 L 30.101562 7.4726562 C 30.101562 7.3983607 30.061445 7.3372444 30.058594 7.2636719 L 25.582031 7.2636719 C 25.206986 7.2067989 25.095584 7.1168556 25.042969 7.046875 C 24.991576 6.978521 24.956736 6.8365817 24.925781 6.6171875 L 24.925781 1.9785156 C 24.78697 1.9682563 24.668865 1.8984375 24.527344 1.8984375 L 23.882812 1.8984375 z "
     id="path1002" />
  <path
     style="opacity:1;fill:#666666;fill-opacity:1;fill-rule:evenodd;stroke:none;stroke-width:1.03534329;stroke-linecap:round;stroke-linejoin:bevel;stroke-miterlimit:4;stroke-dasharray:none;stroke-dashoffset:0;stroke-opacity:1"
     d="M 15.894531 1.8984375 L 15.894531 14.822266 L 15.896484 14.851562 C 15.921864 15.077148 15.926944 15.409575 16.158203 15.746094 C 16.389462 16.082613 16.836722 16.280044 17.380859 16.294922 L 17.388672 16.294922 L 21 16.294922 C 21.250811 16.359442 21.462024 16.396672 21.501953 16.419922 C 21.548093 16.446792 21.589014 16.409652 21.583984 16.808594 L 21.583984 16.8125 L 21.583984 23.138672 A 2.1629322 2.1629322 0 0 0 19.919922 25.240234 A 2.1629322 2.1629322 0 0 0 21.583984 27.341797 L 21.583984 30.101562 L 22.626953 30.101562 L 22.626953 27.332031 A 2.1629322 2.1629322 0 0 0 24.246094 25.240234 A 2.1629322 2.1629322 0 0 0 22.626953 23.150391 L 22.626953 16.822266 C 22.634553 16.219609 22.386923 15.730046 22.025391 15.519531 C 21.663858 15.309016 21.351597 15.315103 21.205078 15.273438 L 21.136719 15.253906 L 17.410156 15.253906 C 17.052393 15.244106 17.036379 15.18645 17.015625 15.15625 C 16.995835 15.12745 16.962587 14.979477 16.935547 14.753906 L 16.935547 1.8984375 L 15.894531 1.8984375 z "
     id="path998" />
  <path
     style="opacity:1;fill:#666666;fill-opacity:1;fill-rule:evenodd;stroke:none;stroke-width:1.03534329;stroke-linecap:round;stroke-linejoin:bevel;stroke-miterlimit:4;stroke-dasharray:none;stroke-dashoffset:0;stroke-opacity:1"
     d="m 11.486328,1.8984375 v 3.5683594 0.017578 c 0.01041,0.3317126 -0.298925,0.3901678 -0.443358,0.3847655 -0.02479,0.014917 -8.6474599,0.049513 -8.9355379,0.056641 -0.079835,0.3223871 -0.13058,0.5115472 -0.1875013,1.0410157 h 0.048869 c 0.2284083,-0.00565 6.7676797,0.1152937 9.1626684,-0.012718 0.473714,-0.02532 0.783307,-0.1559265 0.847089,-0.1943129 0.193125,-0.1162297 0.367067,-0.3160857 0.457031,-0.5527344 0.08996,-0.2366485 0.111059,-0.4984598 0.08984,-0.796875 l 0.002,0.037109 V 1.8984375 Z"
     id="rect4497-3"
     inkscape:connector-curvature="0"
     sodipodi:nodetypes="cccccccscccccc" />
  <circle
     style="fill:#ececec;fill-opacity:1;stroke:#666666;stroke-width:0.59925276;stroke-linecap:round;stroke-miterlimit:4;stroke-dasharray:none;stroke-opacity:1"
     id="path1030-3"
     cx="20.524288"
     cy="6.011332"
     r="1.4640666" />
  <circle
     style="fill:#ececec;fill-opacity:1;stroke:#666666;stroke-width:0.59925276;stroke-linecap:round;stroke-miterlimit:4;stroke-dasharray:none;stroke-opacity:1"
     id="path1030-5"
     cx="12.082988"
     cy="11.020747"
     r="1.4640666" />
  <circle
     style="fill:#ececec;fill-opacity:1;stroke:#666666;stroke-width:0.59925276;stroke-linecap:round;stroke-miterlimit:4;stroke-dasharray:none;stroke-opacity:1"
     id="path1030-6"
     cx="7.0301747"
     cy="20.641462"
     r="1.4640666" />
  <circle
     style="fill:#ececec;fill-opacity:1;stroke:#666666;stroke-width:0.59925276;stroke-linecap:round;stroke-miterlimit:4;stroke-dasharray:none;stroke-opacity:1"
     id="path1030-3-2"
     cx="22.082857"
     cy="25.239941"
     r="1.4640666" />
  <path
     style="fill:#ececec;fill-opacity:1;stroke-width:0.01140059"
     d="m 19.078747,28.040304 -0.404722,-0.0061 -0.06271,-0.03261 c -0.193208,-0.100506 -0.338689,-0.230375 -0.400031,-0.357085 -0.0584,-0.120637 -0.0609,-0.167535 -0.06131,-1.149375 -3.28e-4,-0.839841 0.0011,-0.917862 0.0199,-0.985505 0.01114,-0.0404 0.03318,-0.09037 0.04893,-0.111018 0.06317,-0.08283 0.28866,-0.320247 0.804676,-0.847274 0.770034,-0.786494 5.691925,-5.575141 5.709099,-5.575141 0.0079,0 0.600633,0.584674 1.317264,1.299295 l 1.302982,1.299328 -2.727693,2.597555 c -1.81676,1.730082 -3.336668,3.328846 -3.47148,3.456551 -0.301497,0.285604 -0.39174,0.358946 -0.47058,0.382441 -0.132283,0.03942 -0.480718,0.0457 -1.604328,0.02891 z m 6.971093,-7.76478 -1.377984,-1.240128 0.403065,-0.410751 c 0.189769,-0.183354 0.386076,-0.364665 0.436237,-0.402913 0.115995,-0.08845 0.234974,-0.148296 0.381091,-0.191704 0.311363,-0.0925 0.580581,-0.08811 0.904662,0.01473 0.140148,0.04447 0.236948,0.09621 0.358633,0.19165 0.127829,0.100271 0.86312,0.840399 0.946966,0.953202 0.07961,0.107092 0.135585,0.217389 0.177754,0.350201 0.04643,0.146222 0.05269,0.184249 0.06008,0.364819 0.0172,0.419747 -0.07581,0.702058 -0.32985,1.001354 -0.0709,0.08353 -0.646441,0.668832 -0.657675,0.668832 -1.187844,-0.32963 -0.974359,-0.727186 -1.302982,-1.299292 z"
     id="path871-3"
     inkscape:connector-curvature="0"
     inkscape:transform-center-x="0.5260505"
     inkscape:transform-center-y="2.0384456"
     sodipodi:nodetypes="ccccccccsscssccccccccccccccccc" />
  <path
     style="fill:#46719d;fill-opacity:1;stroke-width:0.00920837"
     d="m 19.482731,27.547955 -0.326898,-0.0049 -0.05065,-0.02634 c -0.156056,-0.08118 -0.273563,-0.186076 -0.323109,-0.288421 -0.04717,-0.09744 -0.04919,-0.13532 -0.04952,-0.928362 -2.65e-4,-0.678348 8.91e-4,-0.741367 0.01607,-0.796003 0.009,-0.03263 0.0268,-0.07299 0.03952,-0.08967 0.05102,-0.0669 0.233153,-0.258667 0.649945,-0.684352 0.621964,-0.635259 5.000209,-5.009376 5.01408,-5.009376 0.0064,0 0.485131,0.472254 1.063968,1.049454 l 1.052432,1.049454 -2.605969,2.604349 c -1.433283,1.432392 -2.695061,2.688743 -2.80395,2.791892 -0.243522,0.230685 -0.316412,0.289924 -0.380092,0.308901 -0.106846,0.03184 -0.388281,0.03691 -1.295832,0.02335 z m 6.406579,-7.171449 -1.056779,-1.056809 0.278685,-0.269268 c 0.153278,-0.148097 0.311837,-0.294544 0.352353,-0.325437 0.09369,-0.07144 0.189791,-0.11978 0.307811,-0.154841 0.251491,-0.07471 0.468941,-0.07117 0.730705,0.0119 0.113199,0.03592 0.191385,0.07771 0.289671,0.154797 0.103249,0.08099 0.697151,0.678799 0.764874,0.769911 0.0643,0.0865 0.109514,0.175588 0.143574,0.282861 0.0375,0.118105 0.04256,0.14882 0.04853,0.294668 0.01389,0.339034 -0.06123,0.56706 -0.266423,0.808804 -0.05727,0.06747 -0.522137,0.540223 -0.531211,0.540223 -0.0027,0 -0.480564,-0.475564 -1.061791,-1.056808 z"
     id="path871"
     inkscape:connector-curvature="0" />
</svg>

<svg xmlns="http://www.w3.org/2000/svg" height="32" width="32" version="1"><rect width="28.203" height="28.203" x="1.898" y="1.898" ry="5.575" fill="#ececec" fill-rule="evenodd"/><path d="M20.527 3.752c-.617 0-1.178.253-1.586.66-.407.407-.66.967-.66 1.584 0 .525.183 1.007.489 1.389.305.382.734.663 1.222.785v2.8l.004.034c.054.411.216.77.484 1.014.268.243.605.348.924.382l.028.004h8.62v-1.043h-8.548c-.166-.02-.265-.062-.322-.115-.059-.053-.117-.145-.149-.369v-2.7c.496-.115.93-.397 1.24-.78.311-.384.498-.871.498-1.4 0-.618-.253-1.178-.66-1.585a2.236 2.236 0 0 0-1.584-.66zm0 .982a1.258 1.258 0 0 1 1.262 1.262 1.259 1.259 0 0 1-1.262 1.264 1.258 1.258 0 0 1-1.263-1.264 1.257 1.257 0 0 1 1.263-1.262zM1.898 11.01h4.125c.208-.004.26.036.297.074.037.038.092.134.104.361v7.037c-.471.134-.881.415-1.174.791a2.206 2.206 0 0 0-.469 1.36c0 .617.253 1.178.66 1.586a2.234 2.234 0 0 0 3.17 0c.407-.408.66-.97.66-1.586a2.254 2.254 0 0 0-1.807-2.201V11.39c-.02-.383-.127-.756-.396-1.034-.269-.277-.663-.397-1.062-.39H1.898v1.043zm5.13 8.361a1.258 1.258 0 0 1 1.261 1.262 1.258 1.258 0 0 1-1.262 1.262 1.258 1.258 0 0 1-1.261-1.262 1.258 1.258 0 0 1 1.261-1.262zM14.283 30.102v-4.338c-.016-.545-.22-.993-.562-1.196-.342-.202-.632-.174-.76-.197l-.047-.008H1.898v.164c0 .312.128.58.176.877H12.82c.215.038.37.061.37.06-.001 0 .041-.036.052.329v4.309h1.041zM18.52 30.102v-8.766l-.002.041c.025-.318.004-.588-.094-.832a1.097 1.097 0 0 0-.488-.543c-.39-.204-.71-.172-.844-.205l-.063-.016h-4.06c-.2 0-.287-.042-.309-.06-.021-.019-.068-.057-.064-.305V13.195a2.274 2.274 0 0 0 1.218-.785c.305-.38.487-.861.487-1.385a2.24 2.24 0 0 0-.66-1.586 2.234 2.234 0 0 0-3.17 0c-.407.408-.66.97-.66 1.586 0 .531.186 1.02.498 1.405.311.384.748.664 1.246.779V19.4c-.007.437.123.846.418 1.104.293.258.66.321.998.32h3.95c.272.059.505.087.53.1.015.008-.007-.022.006.01.013.031.039.144.022.36v8.808h1.04zm-6.465-20.34a1.257 1.257 0 0 1 1.261 1.263 1.258 1.258 0 0 1-1.261 1.262 1.258 1.258 0 0 1-1.262-1.262 1.259 1.259 0 0 1 1.262-1.263zM26.818 29.586v-12.92c.004-.14.03-.17.055-.195.025-.025.097-.07.27-.09h2.771V15.34h-2.853l-.028.002c-.336.037-.658.152-.896.39-.239.24-.352.578-.36.909V29.85c.353-.083.718-.118 1.041-.264z" fill="#666" fill-rule="evenodd"/><path d="M23.883 1.898V6.7l.006.035c.034.256.074.608.322.938.248.33.675.549 1.24.629l.035.004h4.616v-.832c0-.075-.04-.136-.043-.21h-4.477c-.375-.056-.486-.146-.539-.216-.051-.068-.086-.21-.117-.43V1.98c-.139-.01-.257-.08-.399-.08h-.644zM15.895 1.898v12.924l.001.03c.026.225.03.558.262.894.231.337.679.534 1.223.549H21c.25.064.462.102.502.125.046.027.087-.01.082.389v6.33a2.163 2.163 0 0 0-1.664 2.101 2.163 2.163 0 0 0 1.664 2.102v2.76h1.043v-2.77a2.163 2.163 0 0 0 1.62-2.092 2.163 2.163 0 0 0-1.62-2.09v-6.328c.008-.602-.24-1.092-.602-1.302-.361-.211-.673-.205-.82-.247l-.068-.02H17.41c-.358-.009-.374-.067-.394-.097-.02-.029-.053-.177-.08-.402V1.898h-1.041zM11.486 1.898v3.586c.01.332-.299.39-.443.385-.025.015-8.647.05-8.936.057-.08.322-.13.511-.187 1.04h.049c.228-.005 6.767.116 9.162-.012.474-.025.784-.156.848-.194.193-.116.367-.316.457-.553.09-.237.11-.498.09-.797l.001.037V1.898z" fill="#666" fill-rule="evenodd"/><circle cx="20.524" cy="6.011" r="1.464" fill="#ececec" stroke="#666" stroke-width=".599" stroke-linecap="round"/><circle cx="12.083" cy="11.021" r="1.464" fill="#ececec" stroke="#666" stroke-width=".599" stroke-linecap="round"/><circle cx="7.03" cy="20.641" r="1.464" fill="#ececec" stroke="#666" stroke-width=".599" stroke-linecap="round"/><circle cx="22.083" cy="25.24" r="1.464" fill="#ececec" stroke="#666" stroke-width=".599" stroke-linecap="round"/><path d="M19.079 28.04l-.405-.006-.063-.032c-.193-.1-.338-.23-.4-.357-.058-.121-.06-.168-.061-1.15 0-.84.001-.918.02-.985a.401.401 0 0 1 .049-.111c.063-.083.288-.32.804-.848.77-.786 5.692-5.575 5.71-5.575.007 0 .6.585 1.317 1.3l1.303 1.299-2.728 2.597c-1.817 1.73-3.337 3.33-3.471 3.457-.302.286-.392.359-.47.382-.133.04-.482.046-1.605.03zm6.97-7.764l-1.377-1.24.403-.411c.19-.184.386-.365.436-.403.116-.089.235-.149.381-.192.312-.092.58-.088.905.015.14.044.237.096.359.191.127.1.863.84.947.954.08.107.135.217.177.35.047.146.053.184.06.365.018.42-.075.702-.33 1.001-.07.084-.646.669-.657.669-1.188-.33-.975-.727-1.303-1.3z" fill="#ececec"/><path d="M19.483 27.548l-.327-.005-.05-.026c-.157-.081-.274-.186-.324-.289-.047-.097-.05-.135-.05-.928 0-.678.001-.741.017-.796a.324.324 0 0 1 .04-.09c.05-.067.232-.258.65-.684a846 846 0 0 1 5.013-5.01c.007 0 .485.473 1.064 1.05l1.053 1.05-2.606 2.604a610.112 610.112 0 0 1-2.804 2.792c-.244.23-.317.29-.38.309-.107.031-.389.036-1.296.023zm6.406-7.171l-1.056-1.057.278-.27c.153-.148.312-.294.353-.325a.92.92 0 0 1 .307-.155c.252-.075.47-.071.731.012a.838.838 0 0 1 .29.155c.103.08.697.679.765.77.064.086.11.175.143.283a.839.839 0 0 1 .049.294c.014.34-.061.567-.267.81-.057.067-.522.54-.53.54-.004 0-.481-.476-1.063-1.057z" fill="#46719d"/></svg>
